svg/u1f5b1.svg

<svg viewBox="0 0 128 128" xmlns="http://www.w3.org/2000/svg">
  <g>
    <path d="M103.07,37.67C103.07,16.11,85.55,4,64,4S24.93,16.11,24.93,37.67v47.27 C24.93,106.49,42.45,124,64,124s39.07-17.51,39.07-39.07V37.67z" fill="#E0E0E0"/>
    <path d="M97.77,43.53c0-8.85-2.28-20.15-10.87-27.71c-3.73-3.28-8.24-6.14-12.17-5.36 c-6.28,1.25-4.42,8.18-1.86,12.2c1.84,2.89,5.04,6.15,5.44,18.94c0.15,4.97,0.17,9.63-1.28,14.38 c-3.8,12.45-14.18,10.17-15.87,11.1c-3.03,1.67-3.49,5.77-3.5,9.23c-0.03,8.27-0.39,17.22,0.48,25.44 c0.6,5.67,3.98,13.08,10.87,12.8c5.5-0.22,9.34-2.08,13.82-5.16c9.01-6.18,14.52-16.6,14.52-27.52 C97.36,81.86,97.77,43.55,97.77,43.53z" opacity="0.51" fill="#FFFFFF"/>
    <path d="M66.62,4.07c-0.87-0.04-1.78-0.31-3.13,0.94c-1.35,1.26-1.77,2.47-1.98,5.81l-0.14,32.84h5.25V4.07z " fill="#B5B5B5"/>
    <path d="M96.07,48.01c-4.85-2.82-11.5-5.37-20.46-6.59c-1.29-0.18-2.25-1.28-2.25-2.58v-4.57 c-0.28-7.91-4.36-11.3-9.74-11.3S53.54,25.15,53.08,35.2l-0.06,3.42c-0.03,1.55-1.17,2.86-2.7,3.11 c-7.89,1.3-13.87,3.66-18.33,6.25c-4.38,2.53-7.05,7.22-7.05,12.27l0,1.2c0.82-1.48,6.72-10.86,24.79-14.28 c1.63-0.31,3.12,0.98,3.09,2.63l-0.02,0.93c0.65,10.14,5.43,12.72,10.81,12.72s9.84-3.32,9.74-10.67v-3.72 c0-1.41,1.26-2.5,2.65-2.29c19.88,3.01,26.16,13.04,27.06,14.68v-1.2C103.07,55.22,100.42,50.54,96.07,48.01z" fill="#B5B5B5"/>
    <path d="M64,60.69c-4.06,0-7.31-3.51-7.31-7.89V33.62c0-4.38,3.25-7.89,7.31-7.89s7.31,3.51,7.31,7.89V52.8 C71.31,57.18,68.06,60.69,64,60.69z" fill="#504F4F"/>
    <path d="M69.08,32.32c1.14,6.66,0.63,14.7,0.18,20.09s-3.05,6.46-4.45,6.77c-1.9,0.42-4.06-0.21-4.89-2.24 c0,0,2.03-2.29,2.36-5.51c0.55-5.37,0.89-10.82,0.2-16.17c-0.31-2.38-0.36-4.54-2.56-5.23c0,0,0.44-1.53,2.19-2.2 C67.52,25.73,68.82,30.81,69.08,32.32z" fill="#757575"/>
    <path d="M51.78,10.01c4.88-1.9,6.33,2.44,6.37,3.39c0.05,1.56,1.22,7.45-1.44,9 c-6.25,3.63-4.79,8.34-8.15,9.73c-4.17,1.72-6.14-3.03-6.06-6.14C42.84,12.86,49.41,10.94,51.78,10.01z" opacity="0.51" fill="#FFFFFF"/>
  </g>
</svg>

<svg viewBox="0 0 128 128" xmlns="http://www.w3.org/2000/svg">
  <defs/>
  <path d="M103.07,37.67 C103.07,16.11 85.55,4 64,4 C42.45,4 24.93,16.11 24.93,37.67 L24.93,84.94 C24.93,106.49 42.45,124 64,124 C85.55,124 103.07,106.49 103.07,84.93 L103.07,37.67 Z" fill="#E0E0E0"/>
  <path d="M97.77,43.53 C97.77,34.68 95.49,23.38 86.9,15.82 C83.17,12.54 78.66,9.68 74.73,10.46 C68.45,11.71 70.31,18.64 72.87,22.66 C74.71,25.55 77.91,28.81 78.31,41.6 C78.46,46.57 78.48,51.23 77.03,55.98 C73.23,68.43 62.85,66.15 61.16,67.08 C58.13,68.75 57.67,72.85 57.66,76.31 C57.63,84.58 57.27,93.53 58.14,101.75 C58.74,107.42 62.12,114.83 69.01,114.55 C74.51,114.33 78.35,112.47 82.83,109.39 C91.84,103.21 97.35,92.79 97.35,81.87 C97.36,81.86 97.77,43.55 97.77,43.53 Z" fill="#FFFFFF" opacity="0.51"/>
  <path d="M66.62,4.07 C65.75,4.03 64.84,3.76 63.49,5.01 C62.14,6.27 61.72,7.48 61.51,10.82 L61.37,43.66 L66.62,43.66 L66.62,4.07 Z" fill="#B5B5B5"/>
  <path d="M96.07,48.01 C91.22,45.19 84.57,42.64 75.61,41.42 C74.32,41.24 73.36,40.14 73.36,38.84 L73.36,34.27 C73.08,26.36 69,22.97 63.62,22.97 C58.24,22.97 53.54,25.15 53.08,35.2 L53.02,38.62 C52.99,40.17 51.85,41.48 50.32,41.73 C42.43,43.03 36.45,45.39 31.99,47.98 C27.61,50.51 24.94,55.2 24.94,60.25 L24.94,61.45 C25.76,59.97 31.66,50.59 49.73,47.17 C51.36,46.86 52.85,48.15 52.82,49.8 L52.8,50.73 C53.45,60.87 58.23,63.45 63.61,63.45 C68.99,63.45 73.45,60.13 73.35,52.78 L73.35,49.06 C73.35,47.65 74.61,46.56 76,46.77 C95.88,49.78 102.16,59.81 103.06,61.45 L103.06,60.25 C103.07,55.22 100.42,50.54 96.07,48.01 Z" fill="#B5B5B5"/>
  <path d="M64,60.69 C59.94,60.69 56.69,57.18 56.69,52.8 L56.69,33.62 C56.69,29.24 59.94,25.73 64,25.73 C68.06,25.73 71.31,29.24 71.31,33.62 L71.31,52.8 C71.31,57.18 68.06,60.69 64,60.69 Z" fill="#504F4F"/>
  <path d="M69.08,32.32 C70.22,38.98 69.71,47.02 69.26,52.41 C68.81,57.8 66.21,58.87 64.81,59.18 C62.91,59.6 60.75,58.97 59.92,56.94 C59.92,56.94 61.95,54.65 62.28,51.43 C62.83,46.06 63.17,40.61 62.48,35.26 C62.17,32.88 62.12,30.72 59.92,30.03 C59.92,30.03 60.36,28.5 62.11,27.83 C67.52,25.73 68.82,30.81 69.08,32.32 Z" fill="#757575"/>
  <path d="M51.78,10.01 C56.66,8.11 58.11,12.45 58.15,13.4 C58.2,14.96 59.37,20.85 56.71,22.4 C50.46,26.03 51.92,30.74 48.56,32.13 C44.39,33.85 42.42,29.1 42.5,25.99 C42.84,12.86 49.41,10.94 51.78,10.01 Z" fill="#FFFFFF" opacity="0.51"/>
</svg>
